X:1
T:O cruda gelosia
T:O cruda gelosia
T:Giovanni Francesco Violanti
T:Source : Secondo libro delle villanelle a 3 voci---Venetia---Figlio d'A.Gardano---1574. Editor : André Vierendeels (26/03/16).
T:Notes : Original clefs : C1, C2, C3 Editorial accidentals above the staff "Alla napolitana" Music by composers from Bari, collected by G.de Antiquis 
T:©
T:©
C:Giovanni Francesco Violanti
Z:©
%%score [ 1 2 3 ]
L:1/8
Q:1/4=95
M:4/4
K:F
V:1 treble nm="Soprano 1" snm="S 1"
V:2 treble nm="Soprano 2" snm="S 2"
V:3 treble-8 nm="Tenor" snm="T"
V:1
 G8 | A4 A4 | G2 F2 G4 | A2 c2 cBcd | c2 c2 B4 | A4 d4 | c3 B A4 |[M:2/4] G4 ::[M:3/4] A2 A2 A2 | %9
w: 1)O|cru- da|ge- lo- si-|a, per- che _ _ _|1) mi vie-|ti, per-|che mi- vie-|ti,|di ri- mi-|
w: 2)Per|te spir-|ti mei so-|no, per te _ _ _|2)spir- ti me-|i so-|no'in- qui- e-|ti,|e mi fai|
w: 3)Io|t'as- si-|mi- glio'a l'a-|spr'e cru- de _ _ _|3) re- *|ti, cru-|de _ re-|ti,|d'A- mor do-|
w: 4)Deh|ge- lo-|si- * a,|non dar- mi _ _ _|4)piu tor- men-|to, tor-|men- * *|ti,|a- scol- ta,|
[M:4/4] B2 G2 G2 G2 | A2 c2 c3 B | A2 G2 A4 | G4 z4 | c4 B2 G2 | A4 G4 | z2 B2 A2 A2 | B4 A2 A2 | %17
w: 1)rar, di ri- mi-|rar di mia si-|gno- ra'il vol-|to,|che mil- le|1)se- gni,|che mil- le|se- gni, che|
w: 2)star, e mi fai|star, in gran pen-|sier a- vol-|to,|che mil- le|2)se- gni,|che mil- le|se- gni, che|
w: 3've mi veg- gi-|o, mi veg- gio-|star in vol-|to,|che mil- le|3)se- gni,|che mil- le|se- gni, che|
w: 4)a- scol- ta'un po-|co il mio la-|men- * *|to,|il mio la-|4)men- to,|a- pri- ti|e fa, a-|
 G2 G2 A4 | G2 E4 F2- | F2 G4 A2- | A2 B2 B2 B2 | A4 G4 |] %22
w: mil- le se-|gni mi fai|1) far di|_ stol- to, di|stol- to.|
w: mil- le se-|gni mi fai-|2) far di|_ stol- to, di|stol- to.|
w: mil- le se-|gni mi fai|3) far di|_ stol- to, di|stol- to.|
w: pri- tt e|fa, que- sto|4) que- sto|_ mio cor con-|ten- to.|
V:2
 E8 | C4 F4 | E2 F4 E2 | F2 A2 AGAB | A2 A2 G4 | F4 B4 |"^#" A2 G4 F2 |[M:2/4] G4 :: %8
w: 1)O|cru- da|ge- lo- si-|a, per- che _ _ _|1) mi vie-|ti, per-|che mi vie-|ti,|
w: 2)Per|te spir-|ti mei so-|no, per te _ _ _|2)spir- ti me-|i, so-|no'in- qui- e-|ti,|
[M:3/4] ^F2 F2 F2 |[M:4/4] G2 E2 E2 E2 | F2 A2 A2 G2 |"^#" F2 G4 F2 | G2 E2 D2 G2 | E2 ^F2 G2 D2 | %14
w: di ri- mi-|1)rar, di ri- mi-|rar di mia si-|gno- ra'il vol-|to, che mil- le|se- * gni, che|
w: e mi fai|2)star, e mi fai|star, in gran pen-|sier a vol-|to, che mil- le|se- gni, che _|
 F2 F2 E4 | D2 G2 ^F2 F2 | G4 D4 | z2 G2 ^F2 F2 | G4 C4 | z4 E4 | F4 F2 G2 | G2 ^F2 G4 |] %22
w: 1)mil- le se-|gni, che mil- le|se- gni,|che mil- le|se- gni,|mi|fai far di|stol- * to.|
w: 2)mil- le se-|gni, che mil- le|se- gni,|che mil- le|se- gni,|far|di stol- to,|di stol- to.|
V:3
 c8 | A4 F4 | c2 d2 c4 | F2 f2 fefg | f2 F2 GABc | d4 B4 | c2 c2 d4 |[M:2/4] G4 :: %8
w: 3)Io|t'as- si-|mi- glio'a l'a-|spr'e cru- de _ _ _|3) re- * * * *|ti, cru-|de re- *|ti,|
w: 4)Deh|ge- lo-|si- * a,|non dar- mi _ _ _|4)piu tor- men- * * *|* to,|piu tor- men-|to,|
[M:3/4] d2 d2 d2 |[M:4/4] G2 c2 c2 c2 | F2 f2 f2 c2 | d2 _e2 d4 | G2 c2 B2 G2 | A4 G4 | F4 z2 c2 | %15
w: d'A- mor do-|3)ve mi veg- gi-|o, mi veg- gio|star' in vol-|to, che mil- le|se- gni,|3) che|
w: a- scol- ta,|4)a- scol- ta'un po-|co il mio la-|men- * *|to, il mio la-|men- to,|4) a-|
 B2 G2 d4 | G2 g4 f2- | f2 e2 d4 | G4 A4 | B4 c4 | d6 G2 | d4 G4 |] %22
w: mil- le se-|gni, che mil-|* le se-|gni, mi|3)fai far|_ di|stol- to.|
w: pri- ti e|fa, a- pri-|* ti e|fa, que-|4)sto mio|cor con-|ten- to.|

